X:1
T:Amor el versu meco
T:Amor el versu meco
T:Giovanni de Macque
C:Giovanni de Macque
%%score [ 1 2 3 4 ]
L:1/8
Q:1/4=120
M:4/4
K:C
V:1 treble nm="Soprano" snm="S"
V:2 treble nm="Alto" snm="A"
V:3 treble-8 nm="Tenor" snm="T"
V:4 bass nm="Bass" snm="B"
V:1
"^A-                  mor           e'l   ver  fu  me-       co             a      dir che quel-     le ch'i  vi-         di" d8 | %1
 d4 z2 d2 | B2 B2 c4 | A4 z2 d2 | d2 d2 e4 | ^c2 c2 d4 | B8 | %7
"^A   dir  che quel-      le  ch'i     vi-        di   e'l     ver  fu   me-        co,              A     dir che quel-         le ch'i   vi-" z2 d2 d2 d2 | %8
 e4 c2 c2 | d4 B2 d2 | B2 B2 c4 | A4 z2 d2 | d2 d2 e4 | ^c2 c2 d4 | %14
"^mor            e'l    ver  fu   me-        co a       dir                che  quel-      le   ch'i  vi-                                                   d'e""^d 'e-     ran               bel- lez- z'al  mon-do so-          le,                            mai  non ven- du- te  piu  sot-   to  le   stel-" A4 _B4- | %15
 B2 B2 G2 G2 | G2 G2 ^F4 | G8 | z2 B2 G2 A2 | B2 G2 g2 g2 | g2 f2 e4 | d4 e4 | c2 d2 e2 c2 | %23
 g2 g2 g2 f2 | e6 d2 | z2 c2 c2 (B2 | B2) A4 G2 | z4 A4 | %28
"^si          pie-        to-        si e                si    dol-        ci    pa-  ro           le   s 'u  di- ron    mai                      ne               la-" A4 B4 | %29
 B4 ^c4- | c2 d2 d4 | c2 _B2 A4 | G2 c2 d2 d2 | d8 | e6 d2- | d2 c2 B2 B2 | A4 G4 | z4 g4- | %38
 g2 f4 e2 | d6 c2 | B4 A4- | A4 z4 | z4 A4 | B2 B2 ^c2 c2 | d2 A2 B2 B2 | ^c2 c2 d2 d2 | g4 e4 | %47
 d8 | d2 d2 g4- | g4 f4- | f4 d4- | d2 cB A4 | B8 |] %53
V:2
 z4 G4- | G4 G4 | z2 G2 E2 E2 | F4 D4 | z2 G2 G2 G2 | A4 ^F2 F2 | G8 | %7
"^di               A     dir  che quel-       le ch'i   vi-          di    e'l  ver fu     me-      co,                        A            dir  che quel-" G4 z2 G2 | %8
 G2 G2 A4 | ^F2 F2 G4 | G2 G2 E2 E2 | F4 D4 | z4 G4 | G2 G2 A4 | %14
"^le  ch'i  vi- d 'e-ran  bel- lez-z'al   mon-do so-          le,         mai        non  ven-du-te      piu                                 sot-" ^F2 G2 G2 D2 | %15
 G2 G2 E2 E2 | E2 D2 D4 | D4 E4 | C2 D2 E2 C2 | G8 | z4 c4 | %21
"^le,       mai        non ven-du- te     piu sot- to    le    stel-              le,         sot- to    le           stel-       le,                  ne" c2 B2 A4 | %22
 G4 c4 | c2 B2 A4 | G2 E2 C2 D2 | E2 C2 G2 G2 | G2 F2 E4 | D4 E4 | %28
"^si        pie-          to-               si e         si   dol-        ci    pa-  ro-          le   s 'u  di-ron     mai              ne         la-         gri-" E4 E4 | %29
 E6 (A2 | A2) A2 _B4 | A2 G2 E4 | E2 A2 A2 _B2 | A6 A2- | A2 G4 F2 | %35
"^gri-me si      bel-       le                         ne                 la-       gri-    me               si     bel-       le" E4 G4 | %36
 AGFE D2 C2- | C2 B,2 C4 | z8 | z2 A2 G4 | ^F2 G4 F2 | ^F4 G4- | %42
"^di            si     be- gl'oc-chi u- scir, di    si     be- gl'oc-chi u-scir, mai    vi-          d 'il           so-" G4 z4 | %43
 z2 G2 E2 E2 | ^F2 F2 G2 D2 | A2 A2 A4 | D2 G2 c4 | A8 | %48
"^le     mi       vi-                                 d 'il                                 so-                                                       le." G4 G2 E2 | %49
 A8 | A4 G4- | G4 ^F4 | G8 |] %53
V:3
"^A-                   mor            e'l  ver fu    me-     co               a   dir che  quel-    le ch'i    vi-" z8 | %1
 z8 | z8 | z8 | z8 | z4 d4- | d4 d4 | %7
"^e'l   ver  fu     me-      co,                A   dir   che  quel-     le   ch'i    vi-         di,                                            e- ran bel-" z2 d2 B2 B2 | %8
 c4 A4 | z2 d2 d2 d2 | e4 c2 c2 | d4 B4- | B8 | z2 e2 f2 f2 | %14
"^lez-                                z'al         mon-do  so-         le,        mai          non ven-du-te     piu  sot-to   le     stel-       le" d8- | %15
 d4 c4 | B2 B2 A4 | B4 c4 | A2 B2 c2 A2 | G2 c2 c2 B2 | A4 G4 | %21
"^to   le   stel-         le,       sot-          to   le   stel-         le, mai non ven-  du- te   piu sot-   to   le   stel-         le,        ne""^sot- to   le    stel- le                        mai non ven- du- te  piu sot-    to   le stel-           le,                                     ne" z2 g2 g2 f2 | %22
 e2 d2 z4 | z2 e2 c2 d2 | e2 c2 g2 g2 | g2 f2 e4 | d4 z4 | z4 c4 | c4 B4 | B4 e4- | e2 f2 f4 | %31
 f2 d2 ^c4 | ^c2 e2 d2 g2 | ^f8 | z8 | %35
"^me       si            bel-                                  le,                                             ne   la-          gri-  me       si      bel-      le" z2 e4 d2- | %36
 d2 c2 B2 c2 | d4 e2 e2 | d6 c2 | B2 c2 G4 | d8 | z4 d4 | %42
"^si    be-gl'oc-chi u- scir  mai  vi) d 'il     so-           le,    di      si     be-gl'oc-chiu-  scir mai   vi    d 'il    so-         le,     di" e2 e2 ^f2 f2 | %43
"^di    si    be-  gl'oc-chi u-scir mai    vi-  d 'il   so-           le,    mai  vi-            d 'il" g2 e2 a2 a2 | %44
 a4 d2 g2 | e2 e2 ^f2 f2 | g2 d2 a2 g2 | f4 f2 d2 | %48
"^so-           le,   mai        vi-                                  d 'il             so-                                                      le." B2 B2 ^c2 c2 | %49
 d4 A4 | d4 B4 | A8 | G8 |] %53
V:4
 z8 | z8 | z8 | z8 | z8 |"^A-                   mor" z8 |"^A-" G,8 | G,4 z2 G,2 | E,2 E,2 F,4 | %9
 D,4 G,4- | G,2 G,2 A,4 | F,2 F,2 G,4- | G,2 F,2 E,4- | E,4 D,4- | D,4 G,4- | G,2 G,2 C,2 C,2 | %16
 E,2 G,2 D,4 | G,4 z4 | z8 | z4 E,4 | C,2 D,2 E,2 C,2 | %21
"^piu       sot-         to   le   stel-        le,                        sot-       to   le     stel-      le,                                                     ne" G,4 C4 | %22
 C2 B,2 A,4 | G,4 z4 | C4 C2 B,2 | A,4 G,4 | z8 | z4 A,4 | %28
"^si         pie-         to-         si e               si    dol-        ci    pa- ro-           le   s 'u  di-ron     mai""^si        pie-           to-        si e               si    dol-        ci    pa- ro-          le   s 'u di-ron      mai       ne          la-  gri- me" A,4 ^G,4 | %29
 ^G,4 A,4- | A,2 D2 _B,4 | F,2 G,2 z4 | A,2 A,2 ^F,2 G,2 | D,4 D4 | C2 B,2 A,4- | %35
"^ne         la-         gri-  me  si     bel-       le,  ne     la-              gri-   me  si   bel-          le,                                    di" A,4 G,4 | %36
 F,4 G,4- | G,4 z2 C2 | B,2 A,2 G,4- | G,2 F,2 E,4 | D,8 | D4 B,2 B,2 | %42
"^gl'oc-chi u- scir                          mai           vi-          d 'il            so-          le,    di      si   be- gl'oc-chi u-  scir        mai" C2 C2 D4 | %43
 z4 A,4 | D4 B,4 | A,4 D,2 D2 | B,2 B,2 C2 C2 | D4 D,4 | %48
"^si     be-gl'oc-   chi u-    scir             mai              vi               d 'il              so-                                   le." G,4"^Notes: original keys: Sol, Ut 2nd, Ut 3rd, Fa 3rd" E,4 | %49
 D,8- | D,8- | D,8 | G,,8 |] %53

